src/images/close.svg

<svg width="32" height="32" id="close" viewBox="0 0 32 32" xmlns="http://www.w3.org/2000/svg">
<path d="M23.884 6.70597L16 14.59L8.11602 6.70597C7.9264 6.53245 7.67714 6.43878 7.42017 6.44448C7.1632 6.45017 6.91833 6.55479 6.73658 6.73654C6.55484 6.91829 6.45022 7.16315 6.44452 7.42012C6.43883 7.67709 6.5325 7.92635 6.70602 8.11597L14.586 16L6.70402 23.882C6.60773 23.9737 6.53075 24.0838 6.47761 24.2058C6.42448 24.3277 6.39626 24.4591 6.39461 24.5921C6.39296 24.7251 6.41792 24.8571 6.46802 24.9803C6.51812 25.1035 6.59235 25.2155 6.68634 25.3096C6.78033 25.4038 6.89219 25.4781 7.01535 25.5284C7.1385 25.5787 7.27046 25.6038 7.40348 25.6024C7.53649 25.6009 7.66787 25.5729 7.78989 25.5199C7.91191 25.467 8.02211 25.3901 8.11402 25.294L16 17.412L23.884 25.296C24.0736 25.4695 24.3229 25.5632 24.5799 25.5575C24.8368 25.5518 25.0817 25.4472 25.2635 25.2654C25.4452 25.0837 25.5498 24.8388 25.5555 24.5818C25.5612 24.3249 25.4675 24.0756 25.294 23.886L17.41 16.002L25.294 8.11597C25.3903 8.0242 25.4673 7.91411 25.5204 7.79216C25.5736 7.67022 25.6018 7.53888 25.6034 7.40587C25.6051 7.27286 25.5801 7.14086 25.53 7.01763C25.4799 6.89441 25.4057 6.78244 25.3117 6.68832C25.2177 6.59419 25.1058 6.5198 24.9827 6.46953C24.8595 6.41926 24.7276 6.39411 24.5946 6.39557C24.4616 6.39703 24.3302 6.42506 24.2082 6.47802C24.0861 6.53099 23.9759 6.60781 23.884 6.70397V6.70597Z" fill="#FCFCFC"/>
</svg>

<svg version="1.1" id="close" xmlns="http://www.w3.org/2000/svg" xmlns:xlink="http://www.w3.org/1999/xlink" x="0px" y="0px"
	 viewBox="0 0 32 32" xml:space="preserve">

<path class="st0" d="M23.9,6.7L16,14.6L8.1,6.7C7.9,6.5,7.7,6.4,7.4,6.4c-0.3,0-0.5,0.1-0.7,0.3C6.6,6.9,6.5,7.2,6.4,7.4
	c0,0.3,0.1,0.5,0.3,0.7l7.9,7.9l-7.9,7.9c-0.1,0.1-0.2,0.2-0.2,0.3c-0.1,0.1-0.1,0.3-0.1,0.4s0,0.3,0.1,0.4c0.1,0.1,0.1,0.2,0.2,0.3
	c0.1,0.1,0.2,0.2,0.3,0.2c0.1,0.1,0.3,0.1,0.4,0.1c0.1,0,0.3,0,0.4-0.1c0.1-0.1,0.2-0.1,0.3-0.2l7.9-7.9l7.9,7.9
	c0.2,0.2,0.4,0.3,0.7,0.3c0.3,0,0.5-0.1,0.7-0.3c0.2-0.2,0.3-0.4,0.3-0.7c0-0.3-0.1-0.5-0.3-0.7L17.4,16l7.9-7.9
	c0.1-0.1,0.2-0.2,0.2-0.3c0.1-0.1,0.1-0.3,0.1-0.4c0-0.1,0-0.3-0.1-0.4c-0.1-0.1-0.1-0.2-0.2-0.3c-0.1-0.1-0.2-0.2-0.3-0.2
	c-0.1-0.1-0.3-0.1-0.4-0.1c-0.1,0-0.3,0-0.4,0.1C24.1,6.5,24,6.6,23.9,6.7L23.9,6.7z"/>
</svg>
